docs/.gitbook/assets/icon-tack-16@light.svg

<svg width="32" height="32" viewBox="0 0 16 16" fill="none" xmlns="http://www.w3.org/2000/svg">
<rect x="0" y="0" width="16" height="16" fill="#fff"/>
<path fill-rule="evenodd" clip-rule="evenodd" d="M5.22703 2.5C5.05017 2.5 4.92923 2.67863 4.99491 2.84285L5.87483 5.04265L5.17848 5.32119L5.87483 5.04265C5.95752 5.24936 6 5.46995 6 5.69258V6.75292C6 7.15348 5.68524 7.48334 5.28512 7.5021C4.29164 7.54868 3.5 8.36961 3.5 9.375C3.5 9.44404 3.55596 9.5 3.625 9.5H12.375C12.444 9.5 12.5 9.44403 12.5 9.375C12.5 8.36961 11.7084 7.54868 10.7149 7.5021C10.3148 7.48334 10 7.15348 10 6.75292V5.69258C10 5.46995 10.0425 5.24936 10.1252 5.04265C10.1252 5.04265 10.1252 5.04265 10.1252 5.04265L11.0051 2.84285C11.0708 2.67863 10.9498 2.5 10.773 2.5H5.22703ZM3.6022 3.39993C3.14239 2.25042 3.98897 1 5.22703 1H10.773C12.011 1 12.8576 2.25042 12.3978 3.39993L11.5179 5.59973L10.8215 5.32119L11.5179 5.59974C11.5061 5.62926 11.5 5.66078 11.5 5.69258V6.11462C12.94 6.50014 14 7.81362 14 9.375C14 10.2725 13.2725 11 12.375 11H8.75V14.25C8.75 14.6642 8.41421 15 8 15C7.58579 15 7.25 14.6642 7.25 14.25V11H3.625C2.72754 11 2 10.2725 2 9.375C2 7.81362 3.06003 6.50014 4.5 6.11462V5.69258C4.5 5.66078 4.49393 5.62926 4.48212 5.59973L3.6022 3.39993Z" fill="#000"/>
</svg>

<svg xmlns="http://www.w3.org/2000/svg" width="32" height="32" fill="none" viewBox="0 0 16 16"><path fill="#fff" d="M0 0h16v16H0z"/><path fill="#000" fill-rule="evenodd" d="M5.227 2.5a.25.25 0 0 0-.232.343l.88 2.2-.697.278.697-.278c.083.206.125.427.125.65v1.06c0 .4-.315.73-.715.75A1.875 1.875 0 0 0 3.5 9.374c0 .069.056.125.125.125h8.75a.125.125 0 0 0 .125-.125 1.875 1.875 0 0 0-1.785-1.873.75.75 0 0 1-.715-.75v-1.06c0-.222.043-.443.125-.65l.88-2.2a.25.25 0 0 0-.232-.342zm-1.625.9A1.75 1.75 0 0 1 5.227 1h5.546a1.75 1.75 0 0 1 1.625 2.4l-.88 2.2-.697-.279.697.279a.3.3 0 0 0-.018.093v.422a3.376 3.376 0 0 1 2.5 3.26c0 .898-.727 1.625-1.625 1.625H8.75v3.25a.75.75 0 0 1-1.5 0V11H3.625A1.625 1.625 0 0 1 2 9.375a3.376 3.376 0 0 1 2.5-3.26v-.422a.3.3 0 0 0-.018-.093z" clip-rule="evenodd"/></svg>
